app/dist/common/images/willis-towers-watson.svg

<svg height="18" width="18" xmlns="http://www.w3.org/2000/svg"><path d="m0 0h18v18h-18z" fill="#702481"/><path d="m2 7h1v4h-1zm3.309 0h1.077v4h-1.077zm-1.693 2h1.077v2h-1.077zm9.849 0h1.077v2h-1.077zm-6.465-2h1v2h-1zm3.202 0h1.077v2h-1.077zm-1.662 0h1.077v4h-1.077zm3.46 0h1v4h-1zm3 0h1v4h-1z" fill="#fff"/></svg>

<!-- by TradingView --><svg width="18" height="18" xmlns="http://www.w3.org/2000/svg"><path fill="#702481" d="M0 0h18v18H0z"/><path fill="#fff" d="M2 7h1v4H2zM5.309 7h1.077v4H5.309zM3.616 9h1.077v2H3.616V9zM13.465 9h1.077v2h-1.077V9zM7 7h1v2H7V7zM10.202 7h1.077v2h-1.077V7zM8.54 7h1.077v4H8.54zM12 7h1v4h-1zM15 7h1v4h-1z"/></svg>
